X: 1
T: GEESE IN THE BOG -- JIG
B: Ryan's Mammoth Collection of Fiddle Tunes
R: jig
M: 6/8
L: 1/8
Z: Contributed 20000913201931 by John Chambers John.Chambers:weema.com
K: D
  Add fdB | AFA AFA | Add fdB | AFA (B2A) \
| Add fdB | AFA DFA | gfe fdB | AFA BdB :|
|: AFE DFE | DFA BdB | AFE DFA | BGA BdB \
|  AFE DFE | DFA Bgf | gfe fdB |1AFA BdB :|2 AFA d2z |]
